assets/illustrations/default/agent-2.svg

<svg xmlns="http://www.w3.org/2000/svg" width="1080" height="1080" fill="none"><path fill="url(#a)" d="M46.272 278.3h863.713c13.35 0 24.272 10.922 24.272 24.272V848.93c0 13.35-10.922 24.272-24.272 24.272H46.272C32.922 873.202 22 862.28 22 848.93V302.572c0-13.471 10.922-24.272 24.272-24.272"/><path fill="url(#b)" d="M46.272 278.3h863.713c13.35 0 24.272 10.922 24.272 24.272V848.93c0 13.35-10.922 24.272-24.272 24.272H46.272C32.922 873.202 22 862.28 22 848.93V302.572c0-13.471 10.922-24.272 24.272-24.272"/><path fill="#E0E0E0" fill-rule="evenodd" d="M886.805 373.107H69.33v-4.18h817.475z" clip-rule="evenodd"/><path fill="#666" d="M80.131 342.378c5.898 0 10.68-4.782 10.68-10.68s-4.782-10.679-10.68-10.679-10.68 4.781-10.68 10.679 4.782 10.68 10.68 10.68"/><path fill="#35DE90" d="M123.82 342.378c5.899 0 10.68-4.782 10.68-10.68s-4.781-10.679-10.68-10.679c-5.898 0-10.679 4.781-10.679 10.679s4.781 10.68 10.679 10.68"/><path fill="#E0E0E0" d="M167.631 342.378c5.898 0 10.68-4.782 10.68-10.68s-4.782-10.679-10.68-10.679-10.679 4.781-10.679 10.679 4.781 10.68 10.679 10.68"/><path fill="#FCAA73" d="M539.354 268.591H402.582l-10.436 10.437v257.403h101.092v-41.262h46.238l10.436-10.437V279.028z"/><path fill="url(#c)" d="M415.568 472.354h-23.544v54.611h23.544z"/><path fill="url(#d)" d="M457.437 509.611h35.679v-14.442h-35.679z"/><path fill="#F06305" fill-rule="evenodd" d="M508.753 380.963a1.86 1.86 0 0 1 2.453.96l23.059 52.669a1.864 1.864 0 0 1-1.707 2.61h-25.364a1.863 1.863 0 0 1 0-3.725h22.516l-21.916-50.06a1.863 1.863 0 0 1 .959-2.454" clip-rule="evenodd"/><path fill="#0096FA" d="M186.32 631.576c6.918-38.713 34.588-70.509 71.966-82.888l133.253-21.723h101.213l127.185 27.791c37.378 12.257 65.048 44.053 71.966 82.888l40.776 235.559H146.757z"/><path fill="#0096FA" d="m298.942 873.202-157.039 28.519 24.029-136.771h151.699z"/><path fill="url(#e)" d="m321.757 710.097-23.908 163.107H628.31z"/><path fill="url(#f)" d="m653.431 692.135-33.373 181.068h112.621z"/><path fill="#0096FA" d="m272.971 822.353 33.495-30.097 83.617-59.102 71.844 105.097-208.01 144.175z"/><path fill="#FCAA73" d="m397.121 743.348 128.884-23.665 61.408 19.175 36.893 27.548-10.559 10.316-23.422-10.073 25.85 25-13.714 9.345-57.645-36.651 36.164 41.141-10.922 8.01-43.81-28.763 26.699 29.491-9.466 7.767-42.962-27.913-37.135 15.534-24.636-4.975z"/><path fill="#666" d="M542.995 840.436h341.383c7.039 0 12.257 6.432 10.922 13.349l-2.184 11.044c-.971 5.218-5.583 9.101-10.923 9.101H540.81c-7.039 0-12.257-6.432-10.922-13.349l2.184-11.044c.971-5.339 5.583-9.101 10.923-9.101"/><path fill="url(#g)" d="M1060.47 622.838H734.742c-9.345 0-17.354 6.675-19.174 15.777l-41.141 212.014c-2.306 12.015 6.917 23.18 19.174 23.18h325.729c9.34 0 17.35-6.675 19.17-15.777l41.15-212.014c2.3-12.014-6.92-23.18-19.18-23.18"/><path fill="#0096FA" d="M214.84 993.349c41.354 0 74.878-33.524 74.878-74.878s-33.524-74.879-74.878-74.879-74.879 33.524-74.879 74.879c0 41.354 33.525 74.878 74.879 74.878"/><path fill="#1968F0" d="M1023.82 330.121H793.358c-13.47 0-24.514 10.922-24.514 24.514V517.62c0 13.471 10.922 24.515 24.514 24.515h27.185v33.981c0 5.339 6.432 7.888 10.073 4.247l38.107-38.107H1023.7c13.47 0 24.51-10.922 24.51-24.514V354.757c.12-13.593-10.8-24.636-24.39-24.636"/><path fill="#000" d="M390.568 311.795h159.223l22.816-52.427-182.767 7.16z"/><path fill="#000" d="M405.01 478.3h-12.986l-1.456-172.694h32.767z"/><path fill="#FCAA73" d="M394.087 438.737h31.432l4.491-44.903h-46.117v34.709c0 5.703 4.49 10.194 10.194 10.194"/><path fill="#35DE90" d="M910.592 453.543h-86.893c-5.34 0-9.709 4.369-9.709 9.709v16.505c0 5.34 4.369 9.709 9.709 9.709h86.893c5.34 0 9.709-4.369 9.709-9.709v-16.505c0-5.34-4.369-9.709-9.709-9.709"/><path fill="url(#h)" d="M997 453.543h-45.995c-5.34 0-9.709 4.369-9.709 9.709v16.505c0 5.34 4.369 9.709 9.709 9.709H997c5.34 0 9.71-4.369 9.71-9.709v-16.505c0-5.34-4.37-9.709-9.71-9.709"/><path fill="#072F73" d="M998.941 388.009H821.757c-5.34 0-9.709 4.369-9.709 9.709v16.504c0 5.34 4.369 9.709 9.709 9.709h177.184c5.339 0 9.709-4.369 9.709-9.709v-16.504c0-5.34-4.25-9.709-9.709-9.709"/><defs><linearGradient id="a" x1="270.756" x2="1128.21" y1="661.543" y2="306.665" gradientUnits="userSpaceOnUse"><stop stop-color="#fff"/><stop offset=".353" stop-color="#FBFBFB"/><stop offset=".715" stop-color="#EFEFEF"/><stop offset=".99" stop-color="#E0E0E0"/></linearGradient><linearGradient id="b" x1="691.159" x2="-399.083" y1="513.104" y2="833.555" gradientUnits="userSpaceOnUse"><stop stop-color="#03F" stop-opacity="0"/><stop offset=".261" stop-color="#0033FC" stop-opacity=".265"/><stop offset=".424" stop-color="#0133F4" stop-opacity=".43"/><stop offset=".56" stop-color="#0132E5" stop-opacity=".569"/><stop offset=".681" stop-color="#0232D1" stop-opacity=".692"/><stop offset=".793" stop-color="#0431B6" stop-opacity=".805"/><stop offset=".896" stop-color="#053095" stop-opacity=".91"/><stop offset=".985" stop-color="#072F73"/></linearGradient><linearGradient id="c" x1="425.769" x2="362.791" y1="505.035" y2="489.66" gradientUnits="userSpaceOnUse"><stop stop-color="#F8BC9A" stop-opacity="0"/><stop offset=".107" stop-color="#F7B48D" stop-opacity=".138"/><stop offset=".303" stop-color="#F6A06C" stop-opacity=".391"/><stop offset=".565" stop-color="#F38035" stop-opacity=".729"/><stop offset=".776" stop-color="#F06305"/></linearGradient><linearGradient id="d" x1="460.24" x2="491.083" y1="524.328" y2="479.26" gradientUnits="userSpaceOnUse"><stop stop-color="#F8BC9A" stop-opacity="0"/><stop offset=".162" stop-color="#F8BA96" stop-opacity=".162"/><stop offset=".326" stop-color="#F7B28A" stop-opacity=".326"/><stop offset=".492" stop-color="#F6A675" stop-opacity=".492"/><stop offset=".658" stop-color="#F59559" stop-opacity=".658"/><stop offset=".825" stop-color="#F37F34" stop-opacity=".825"/><stop offset=".99" stop-color="#F06508" stop-opacity=".99"/><stop offset="1" stop-color="#F06305"/></linearGradient><linearGradient id="e" x1="511.593" x2="379.562" y1="735.995" y2="937.218" gradientUnits="userSpaceOnUse"><stop offset=".276" stop-color="#0096FA"/><stop offset=".387" stop-color="#0093F6"/><stop offset=".502" stop-color="#0189E9"/><stop offset=".62" stop-color="#0279D5"/><stop offset=".738" stop-color="#0363B8"/><stop offset=".856" stop-color="#054793"/><stop offset=".942" stop-color="#072F73"/></linearGradient><linearGradient id="f" x1="798.017" x2="571.289" y1="713.16" y2="863.29" gradientUnits="userSpaceOnUse"><stop offset=".46" stop-color="#0096FA"/><stop offset=".551" stop-color="#0189EA"/><stop offset=".729" stop-color="#0369BF"/><stop offset=".976" stop-color="#07347A"/><stop offset="1" stop-color="#072F73"/></linearGradient><linearGradient id="g" x1="683.71" x2="1091.75" y1="860.837" y2="623.321" gradientUnits="userSpaceOnUse"><stop stop-color="#A3A3A3"/><stop offset=".23" stop-color="#BCBCBC"/><stop offset=".488" stop-color="#D0D0D0"/><stop offset=".745" stop-color="#DCDCDC"/><stop offset="1" stop-color="#E0E0E0"/></linearGradient><linearGradient id="h" x1="941.289" x2="1006.73" y1="471.499" y2="471.499" gradientUnits="userSpaceOnUse"><stop stop-color="#fff"/><stop offset=".952" stop-color="#C5D9FB"/></linearGradient></defs></svg>

<svg width="1080" height="1080" viewBox="0 0 1080 1080" fill="none" xmlns="http://www.w3.org/2000/svg">
<path d="M46.2718 278.3H909.985C923.335 278.3 934.257 289.222 934.257 302.572V848.93C934.257 862.28 923.335 873.202 909.985 873.202H46.2718C32.9223 873.202 22 862.28 22 848.93V302.572C22 289.101 32.9223 278.3 46.2718 278.3Z" fill="url(#paint0_linear_10272_1610)"/>
<path d="M46.2718 278.3H909.985C923.335 278.3 934.257 289.222 934.257 302.572V848.93C934.257 862.28 923.335 873.202 909.985 873.202H46.2718C32.9223 873.202 22 862.28 22 848.93V302.572C22 289.101 32.9223 278.3 46.2718 278.3Z" fill="url(#paint1_linear_10272_1610)"/>
<path fill-rule="evenodd" clip-rule="evenodd" d="M886.805 373.107H69.3301V368.927H886.805V373.107Z" fill="#E0E0E0"/>
<path d="M80.1312 342.378C86.0294 342.378 90.8109 337.596 90.8109 331.698C90.8109 325.8 86.0294 321.019 80.1312 321.019C74.233 321.019 69.4515 325.8 69.4515 331.698C69.4515 337.596 74.233 342.378 80.1312 342.378Z" fill="#666666"/>
<path d="M123.82 342.378C129.719 342.378 134.5 337.596 134.5 331.698C134.5 325.8 129.719 321.019 123.82 321.019C117.922 321.019 113.141 325.8 113.141 331.698C113.141 337.596 117.922 342.378 123.82 342.378Z" fill="#35DE90"/>
<path d="M167.631 342.378C173.529 342.378 178.311 337.596 178.311 331.698C178.311 325.8 173.529 321.019 167.631 321.019C161.733 321.019 156.952 325.8 156.952 331.698C156.952 337.596 161.733 342.378 167.631 342.378Z" fill="#E0E0E0"/>
<path d="M539.354 268.591H402.582L392.146 279.028V536.431H493.238V495.169H539.476C543.602 491.043 545.786 488.858 549.912 484.732V279.028L539.354 268.591Z" fill="#FCAA73"/>
<path d="M415.568 472.354H392.024V526.965H415.568V472.354Z" fill="url(#paint2_linear_10272_1610)"/>
<path d="M457.437 509.611H493.116V495.169H457.437V509.611Z" fill="url(#paint3_linear_10272_1610)"/>
<path fill-rule="evenodd" clip-rule="evenodd" d="M508.753 380.963C509.695 380.551 510.794 380.98 511.206 381.923L534.265 434.592C534.517 435.168 534.461 435.833 534.117 436.359C533.773 436.885 533.187 437.202 532.558 437.202H507.194C506.166 437.202 505.332 436.368 505.332 435.339C505.332 434.311 506.166 433.477 507.194 433.477H529.71L507.794 383.417C507.381 382.474 507.811 381.376 508.753 380.963Z" fill="#F06305"/>
<path d="M186.32 631.576C193.238 592.863 220.908 561.067 258.286 548.688L391.539 526.965H492.752L619.937 554.756C657.315 567.013 684.985 598.809 691.903 637.644L732.679 873.203H490.325H389.111H146.757L186.32 631.576Z" fill="#0096FA"/>
<path d="M298.942 873.202L141.903 901.721L165.932 764.95H317.631L298.942 873.202Z" fill="#0096FA"/>
<path d="M321.757 710.097L297.849 873.204H628.31L321.757 710.097Z" fill="url(#paint4_linear_10272_1610)"/>
<path d="M653.431 692.135L620.058 873.203H732.679L653.431 692.135Z" fill="url(#paint5_linear_10272_1610)"/>
<path d="M272.971 822.353L306.466 792.256L390.083 733.154L461.927 838.251L253.917 982.426L272.971 822.353Z" fill="#0096FA"/>
<path d="M397.121 743.348L526.005 719.683L587.413 738.858L624.306 766.406L613.747 776.722L590.325 766.649L616.175 791.649L602.461 800.994L544.816 764.343L580.98 805.484L570.058 813.494L526.248 784.731L552.947 814.222L543.481 821.989L500.519 794.076L463.384 809.61L438.748 804.635L397.121 743.348Z" fill="#FCAA73"/>
<path d="M542.995 840.436H884.378C891.417 840.436 896.635 846.868 895.3 853.785L893.116 864.829C892.145 870.047 887.533 873.93 882.193 873.93H540.81C533.771 873.93 528.553 867.498 529.888 860.581L532.072 849.537C533.043 844.198 537.655 840.436 542.995 840.436Z" fill="#666666"/>
<path d="M1060.47 622.838H734.742C725.397 622.838 717.388 629.513 715.568 638.615L674.427 850.629C672.121 862.644 681.344 873.809 693.601 873.809H1019.33C1028.67 873.809 1036.68 867.134 1038.5 858.032L1079.65 646.018C1081.95 634.004 1072.73 622.838 1060.47 622.838Z" fill="url(#paint6_linear_10272_1610)"/>
<path d="M214.84 993.349C256.194 993.349 289.718 959.825 289.718 918.471C289.718 877.116 256.194 843.592 214.84 843.592C173.486 843.592 139.961 877.116 139.961 918.471C139.961 959.825 173.486 993.349 214.84 993.349Z" fill="#0096FA"/>
<path d="M1023.82 330.121H793.358C779.888 330.121 768.844 341.043 768.844 354.635V517.62C768.844 531.091 779.766 542.135 793.358 542.135H820.543V576.116C820.543 581.455 826.975 584.004 830.616 580.363L868.723 542.256H1023.7C1037.17 542.256 1048.21 531.334 1048.21 517.742V354.757C1048.33 341.164 1037.41 330.121 1023.82 330.121Z" fill="#1968F0"/>
<path d="M390.568 311.795H549.791L572.607 259.368L389.84 266.528L390.568 311.795Z" fill="black"/>
<path d="M405.01 478.3H392.024L390.568 305.606H423.335L405.01 478.3Z" fill="black"/>
<path d="M394.087 438.737H425.519L430.01 393.834H383.893V428.543C383.893 434.246 388.383 438.737 394.087 438.737Z" fill="#FCAA73"/>
<path d="M910.592 453.543H823.699C818.359 453.543 813.99 457.912 813.99 463.252V479.757C813.99 485.097 818.359 489.466 823.699 489.466H910.592C915.932 489.466 920.301 485.097 920.301 479.757V463.252C920.301 457.912 915.932 453.543 910.592 453.543Z" fill="#35DE90"/>
<path d="M997 453.543H951.005C945.665 453.543 941.296 457.912 941.296 463.252V479.757C941.296 485.097 945.665 489.466 951.005 489.466H997C1002.34 489.466 1006.71 485.097 1006.71 479.757V463.252C1006.71 457.912 1002.34 453.543 997 453.543Z" fill="url(#paint7_linear_10272_1610)"/>
<path d="M998.941 388.009H821.757C816.417 388.009 812.048 392.378 812.048 397.718V414.222C812.048 419.562 816.417 423.931 821.757 423.931H998.941C1004.28 423.931 1008.65 419.562 1008.65 414.222V397.718C1008.65 392.378 1004.4 388.009 998.941 388.009Z" fill="#072F73"/>
<defs>
<linearGradient id="paint0_linear_10272_1610" x1="270.756" y1="661.543" x2="1128.21" y2="306.665" gradientUnits="userSpaceOnUse">
<stop stop-color="white"/>
<stop offset="0.3535" stop-color="#FBFBFB"/>
<stop offset="0.7152" stop-color="#EFEFEF"/>
<stop offset="0.9901" stop-color="#E0E0E0"/>
</linearGradient>
<linearGradient id="paint1_linear_10272_1610" x1="691.159" y1="513.104" x2="-399.083" y2="833.555" gradientUnits="userSpaceOnUse">
<stop stop-color="#0033FF" stop-opacity="0"/>
<stop offset="0.2608" stop-color="#0033FC" stop-opacity="0.2649"/>
<stop offset="0.4238" stop-color="#0133F4" stop-opacity="0.4304"/>
<stop offset="0.56" stop-color="#0132E5" stop-opacity="0.5688"/>
<stop offset="0.6815" stop-color="#0232D1" stop-opacity="0.6922"/>
<stop offset="0.793" stop-color="#0431B6" stop-opacity="0.8055"/>
<stop offset="0.896" stop-color="#053095" stop-opacity="0.91"/>
<stop offset="0.9845" stop-color="#072F73"/>
</linearGradient>
<linearGradient id="paint2_linear_10272_1610" x1="425.769" y1="505.035" x2="362.791" y2="489.66" gradientUnits="userSpaceOnUse">
<stop stop-color="#F8BC9A" stop-opacity="0"/>
<stop offset="0.1066" stop-color="#F7B48D" stop-opacity="0.1375"/>
<stop offset="0.3031" stop-color="#F6A06C" stop-opacity="0.3906"/>
<stop offset="0.5652" stop-color="#F38035" stop-opacity="0.7285"/>
<stop offset="0.7758" stop-color="#F06305"/>
</linearGradient>
<linearGradient id="paint3_linear_10272_1610" x1="460.24" y1="524.328" x2="491.083" y2="479.26" gradientUnits="userSpaceOnUse">
<stop stop-color="#F8BC9A" stop-opacity="0"/>
<stop offset="0.1621" stop-color="#F8BA96" stop-opacity="0.1621"/>
<stop offset="0.3263" stop-color="#F7B28A" stop-opacity="0.3263"/>
<stop offset="0.4917" stop-color="#F6A675" stop-opacity="0.4917"/>
<stop offset="0.6578" stop-color="#F59559" stop-opacity="0.6578"/>
<stop offset="0.8246" stop-color="#F37F34" stop-opacity="0.8246"/>
<stop offset="0.9897" stop-color="#F06508" stop-opacity="0.9897"/>
<stop offset="1" stop-color="#F06305"/>
</linearGradient>
<linearGradient id="paint4_linear_10272_1610" x1="511.593" y1="735.995" x2="379.562" y2="937.218" gradientUnits="userSpaceOnUse">
<stop offset="0.2759" stop-color="#0096FA"/>
<stop offset="0.3871" stop-color="#0093F6"/>
<stop offset="0.5024" stop-color="#0189E9"/>
<stop offset="0.6196" stop-color="#0279D5"/>
<stop offset="0.7381" stop-color="#0363B8"/>
<stop offset="0.8564" stop-color="#054793"/>
<stop offset="0.9417" stop-color="#072F73"/>
</linearGradient>
<linearGradient id="paint5_linear_10272_1610" x1="798.017" y1="713.16" x2="571.289" y2="863.29" gradientUnits="userSpaceOnUse">
<stop offset="0.4601" stop-color="#0096FA"/>
<stop offset="0.5507" stop-color="#0189EA"/>
<stop offset="0.729" stop-color="#0369BF"/>
<stop offset="0.9756" stop-color="#07347A"/>
<stop offset="1" stop-color="#072F73"/>
</linearGradient>
<linearGradient id="paint6_linear_10272_1610" x1="683.71" y1="860.837" x2="1091.75" y2="623.321" gradientUnits="userSpaceOnUse">
<stop stop-color="#A3A3A3"/>
<stop offset="0.2301" stop-color="#BCBCBC"/>
<stop offset="0.4877" stop-color="#D0D0D0"/>
<stop offset="0.7451" stop-color="#DCDCDC"/>
<stop offset="1" stop-color="#E0E0E0"/>
</linearGradient>
<linearGradient id="paint7_linear_10272_1610" x1="941.289" y1="471.499" x2="1006.73" y2="471.499" gradientUnits="userSpaceOnUse">
<stop stop-color="white"/>
<stop offset="0.9515" stop-color="#C5D9FB"/>
</linearGradient>
</defs>
</svg>
